X: 37
T: No_131_Catfish_Dance_Song_(e).krn
N: Derived from No_131_Catfish_Dance_Song_(e).krn
%%abc-version 2.0
%%abcx-abcm2ps-target-version 5.9.1 (29 Sep 2008)
%%abc-creator hum2abc beta
%%abcx-conversion-date 2019/03/15 08:38:45
%%humdrum-veritas 3261715705
%%humdrum-veritas-data 2843751247
%%linebreak <none>
%%barnumbers 0
L: 1/4
M: 2/4
%%staves {1 2}
V: 1 clef=bass
V: 2 clef=bass
K: F
[V:1] [K:clef=bass][M:2/4](D,//C,3//)C, [I:setbarnb 2]| 
[V:2] [K:clef=bass][M:2/4]G,,G,, | 
[V:1] G,2 | 
[V:2] G,,G,, | 
[V:1] G,/F,/D, | 
[V:2] z2 | 
[V:1] (F,//D,3//)C, ||  
[V:2] z2 ||  
[V:1] [M:3/4](G,A,)G, | 
[V:2] [M:3/4]z3 | 
[V:1] !fermata!D,3/D,/C, ||  
[V:2] z3 ||  
[V:1] [M:2/4]F,D,//C,3// | 
[V:2] [M:2/4]z2 | 
[V:1] F,2 ||  
[V:2] z2 ||  
[V:1] [M:3/4]F,zA,,3//A,,// ||  
[V:2] [M:3/4]z3 ||  
[V:1] [M:2/4]D,2- | 
[V:2] [M:2/4]z2 | 
[V:1] D,C, | 
[V:2] z2 | 
[V:1] C,2 :|]  
[V:2] z2 :|]  



